api/illustrations/unDraw.svg

<svg width="87" height="18" viewBox="0 0 87 18" fill="none" xmlns="http://www.w3.org/2000/svg">
<path d="M4.808 17.288C3.512 17.288 2.488 16.936 1.736 16.232C1 15.528 0.632 14.4 0.632 12.848V4.376H3.92V12.152C3.92 12.936 4.104 13.504 4.472 13.856C4.84 14.208 5.384 14.384 6.104 14.384C6.84 14.384 7.448 14.128 7.928 13.616C8.424 13.088 8.672 12.44 8.672 11.672V4.376H11.96V17H9.152L8.912 15.344H8.744C7.72 16.64 6.408 17.288 4.808 17.288ZM15.3759 4.376H18.1839L18.4239 6.032H18.5919C19.6159 4.736 20.9279 4.088 22.5279 4.088C23.8239 4.088 24.8399 4.44 25.5759 5.144C26.3279 5.848 26.7039 6.976 26.7039 8.528V17H23.4159V9.224C23.4159 8.44 23.2319 7.872 22.8639 7.52C22.4959 7.168 21.9519 6.992 21.2319 6.992C20.4959 6.992 19.8799 7.256 19.3839 7.784C18.9039 8.296 18.6639 8.936 18.6639 9.704V17H15.3759V4.376ZM29.9518 0.535999H36.7678C39.2798 0.535999 41.2158 1.224 42.5758 2.6C43.9518 3.96 44.6398 6.016 44.6398 8.768C44.6398 11.52 43.9518 13.584 42.5758 14.96C41.2158 16.32 39.2798 17 36.7678 17H29.9518V0.535999ZM36.7678 14.048C38.1758 14.048 39.2398 13.624 39.9598 12.776C40.6958 11.912 41.0638 10.696 41.0638 9.128V8.408C41.0638 6.84 40.6958 5.632 39.9598 4.784C39.2398 3.92 38.1758 3.488 36.7678 3.488H33.4318V14.048H36.7678ZM47.3681 4.376H50.1761L50.4401 6.416H50.6081C50.8801 5.696 51.2321 5.128 51.6641 4.712C52.0961 4.296 52.6641 4.088 53.3681 4.088C53.8321 4.088 54.2481 4.16 54.6161 4.304V7.376H53.7041C52.6321 7.376 51.8561 7.672 51.3761 8.264C50.8961 8.84 50.6561 9.72 50.6561 10.904V17H47.3681V4.376ZM59.6002 17.288C58.6242 17.288 57.7282 17.032 56.9122 16.52C56.0962 16.008 55.6882 15.08 55.6882 13.736C55.6882 12.12 56.3522 10.976 57.6802 10.304C59.0082 9.616 60.8882 9.272 63.3202 9.272V8.384C63.3202 7.824 63.1922 7.392 62.9362 7.088C62.6962 6.784 62.2322 6.632 61.5442 6.632C60.8082 6.632 60.2802 6.744 59.9602 6.968C59.6562 7.192 59.5042 7.456 59.5042 7.76V8.12H56.3362C56.3202 8.024 56.3122 7.848 56.3122 7.592C56.3122 6.536 56.7762 5.688 57.7042 5.048C58.6482 4.408 59.8962 4.088 61.4482 4.088C63.1762 4.088 64.4642 4.44 65.3122 5.144C66.1762 5.848 66.6082 6.864 66.6082 8.192V13.76C66.6082 14.048 66.6882 14.264 66.8482 14.408C67.0082 14.536 67.2082 14.6 67.4482 14.6H68.1202V16.904C67.6082 17.16 66.9762 17.288 66.2242 17.288C65.5682 17.288 65.0162 17.144 64.5682 16.856C64.1362 16.568 63.8402 16.16 63.6802 15.632H63.5362C63.0722 16.176 62.5362 16.592 61.9282 16.88C61.3362 17.152 60.5602 17.288 59.6002 17.288ZM60.6322 14.696C61.5602 14.696 62.2402 14.44 62.6722 13.928C63.1042 13.4 63.3202 12.704 63.3202 11.84V11.456C60.4562 11.456 59.0242 12.096 59.0242 13.376C59.0242 13.776 59.1522 14.096 59.4082 14.336C59.6802 14.576 60.0882 14.696 60.6322 14.696ZM68.4241 4.376H71.8081L73.1761 9.56C73.3201 10.12 73.5681 11.328 73.9201 13.184H74.0161C74.3681 11.472 74.6241 10.272 74.7841 9.584L76.0801 4.376H79.4641L80.8321 9.608C81.0241 10.344 81.2881 11.536 81.6241 13.184H81.7201C82.0241 11.648 82.2801 10.456 82.4881 9.608L83.7841 4.376H86.9041L83.1601 17H79.7521L78.3121 10.976C78.1361 10.208 77.9441 9.28 77.7361 8.192H77.6161C77.4721 9.264 77.3041 10.184 77.1121 10.952L75.6001 17H72.1921L68.4241 4.376Z" fill="black"/>
</svg>

<svg fill="none" height="18" width="87" xmlns="http://www.w3.org/2000/svg"><path d="m4.808 17.288c-1.296 0-2.32-.352-3.072-1.056-.736-.704-1.104-1.832-1.104-3.384v-8.472h3.288v7.776c0 .784.184 1.352.552 1.704s.912.528 1.632.528c.736 0 1.344-.256 1.824-.768.496-.528.744-1.176.744-1.944v-7.296h3.288v12.624h-2.808l-.24-1.656h-.168c-1.024 1.296-2.336 1.944-3.936 1.944zm10.568-12.912h2.808l.24 1.656h.168c1.024-1.296 2.336-1.944 3.936-1.944 1.296 0 2.312.352 3.048 1.056.752.704 1.128 1.832 1.128 3.384v8.472h-3.288v-7.776c0-.784-.184-1.352-.552-1.704s-.912-.528-1.632-.528c-.736 0-1.352.264-1.848.792-.48.512-.72 1.152-.72 1.92v7.296h-3.288zm14.576-3.84h6.816c2.512 0 4.448.688 5.808 2.064 1.376 1.36 2.064 3.416 2.064 6.168s-.688 4.816-2.064 6.192c-1.36 1.36-3.296 2.04-5.808 2.04h-6.816zm6.816 13.512c1.408 0 2.472-.424 3.192-1.272.736-.864 1.104-2.08 1.104-3.648v-.72c0-1.568-.368-2.776-1.104-3.624-.72-.864-1.784-1.296-3.192-1.296h-3.336v10.56zm10.6-9.672h2.808l.264 2.04h.168c.272-.72.624-1.288 1.056-1.704s1-.624 1.704-.624c.464 0 .88.072 1.248.216v3.072h-.912c-1.072 0-1.848.296-2.328.888-.48.576-.72 1.456-.72 2.64v6.096h-3.288zm12.232 12.912a4.958 4.958 0 0 1 -2.688-.768c-.816-.512-1.224-1.44-1.224-2.784 0-1.616.664-2.76 1.992-3.432 1.328-.688 3.208-1.032 5.64-1.032v-.888c0-.56-.128-.992-.384-1.296-.24-.304-.704-.456-1.392-.456-.736 0-1.264.112-1.584.336-.304.224-.456.488-.456.792v.36h-3.168a3.806 3.806 0 0 1 -.024-.528c0-1.056.464-1.904 1.392-2.544.944-.64 2.192-.96 3.744-.96 1.728 0 3.016.352 3.864 1.056.864.704 1.296 1.72 1.296 3.048v5.568c0 .288.08.504.24.648a.93.93 0 0 0 .6.192h.672v2.304c-.512.256-1.144.384-1.896.384-.656 0-1.208-.144-1.656-.432a2.178 2.178 0 0 1 -.888-1.224h-.144c-.464.544-1 .96-1.608 1.248-.592.272-1.368.408-2.328.408zm1.032-2.592c.928 0 1.608-.256 2.04-.768.432-.528.648-1.224.648-2.088v-.384c-2.864 0-4.296.64-4.296 1.92 0 .4.128.72.384.96.272.24.68.36 1.224.36zm7.792-10.32h3.384l1.368 5.184c.144.56.392 1.768.744 3.624h.096c.352-1.712.608-2.912.768-3.6l1.296-5.208h3.384l1.368 5.232c.192.736.456 1.928.792 3.576h.096a86.35 86.35 0 0 1 .768-3.576l1.296-5.232h3.12l-3.744 12.624h-3.408l-1.44-6.024a79.862 79.862 0 0 1 -.576-2.784h-.12a25.631 25.631 0 0 1 -.504 2.76l-1.512 6.048h-3.408z" fill="#000"/></svg>
